storage/app/icons/phosphoricons/thin/faders-horizontal-thin.svg

<svg xmlns="http://www.w3.org/2000/svg" fill="currentColor" viewBox="0 0 256 256"><path d="M180 80a4 4 0 0 1 4-4h32a4 4 0 0 1 0 8h-32a4 4 0 0 1-4-4M40 84h108v20a4 4 0 0 0 8 0V56a4 4 0 0 0-8 0v20H40a4 4 0 0 0 0 8m176 88h-96a4 4 0 0 0 0 8h96a4 4 0 0 0 0-8M88 148a4 4 0 0 0-4 4v20H40a4 4 0 0 0 0 8h44v20a4 4 0 0 0 8 0v-48a4 4 0 0 0-4-4"/></svg>

<svg xmlns="http://www.w3.org/2000/svg" viewBox="0 0 256 256" fill="currentColor"><path d="M180,80a4,4,0,0,1,4-4h32a4,4,0,0,1,0,8H184A4,4,0,0,1,180,80ZM40,84H148v20a4,4,0,0,0,8,0V56a4,4,0,0,0-8,0V76H40a4,4,0,0,0,0,8Zm176,88H120a4,4,0,0,0,0,8h96a4,4,0,0,0,0-8ZM88,148a4,4,0,0,0-4,4v20H40a4,4,0,0,0,0,8H84v20a4,4,0,0,0,8,0V152A4,4,0,0,0,88,148Z"/></svg>
